X: 43
T:Anthony Frawley's
M:6/8
L:1/8
R:JIG
O:Ireland
K:G
[| BA | GED GBA | GED G2 A | GED GAB | dBA B2 A |
GED GAB | def g2 a | bag ege | dBG A :| Bc |
ddd edB | def gfe | ddd edB | dBG ABc | ddd edB | 
def g2 a | bag ege | dBG A :|
